X: 17
T:Alborada de Rosalía de Castro
M:2/4
L:1/16
Q:100
C:Avelino Cachafeiro
R:Alborada
B:Leccións de Gaita. OTERO COVELO
K:C
c8- | c4 B2A2 | G8 | ABAG FGAF | G3F EFGE |
F3E DEFD | E3D CDEC |D3C B,CDB, |C2 .C2.C2 | D3B, C2D2 |
E3C D2E2 | F3D E2F2 | G3E F2G2 | A3F G2A2 |B3G A2B2 |c6 G2 |
c3B ABcA | B3A GABG | A3G FGAF | G3F EFGE | F3E DEFD |
E3D CDEC |D3C B,CDB, | C2.C2.C2.C2 | F3D B,CDB, | C2.C2.C2.C2|
D3C B,CDB, | C2.C2.C2.C2 | F3D B,CDB, | C2.C2.C2.C2| D3C B,CDB, | C2.C2.
C2D2|
_EFED CDEC | D_EDB, CB,CD | _EFED CDEC | D_EDB, CB,CD |
_EFED CDEC | D_EDC B,CDB, | C6 G2 | c3B ABcA | BcBA GABG |
ABAG FGAF | GAGF EFGE | FGFE DEFD | EFED CDEC | DEDC B,CDB, |

